X: 9299
T: Dancer's Favourite, The
R: reel
M: 4/4
K: Amixolydian
cd|eA ~A2 gfed|ecAc BAGB|AE ~E2 G3 A|BE~E2 GBdf|
eA ~A2 gfed|ecAc BGEG|1 Bd~d2 efge|dBGB cA:|2 Bdfd efge|dBGB A2||
|:BA|[M:6/4]GBAB dGeG dG~G3|[M:4/4] dGeG d~G3|[M:6/4] ~A3 c efec ~A3 c|[M:4/4] efec dcBA|
[M:6/4] GBAB dGeG dG ~G3|[M:4/4] dGeG dG~G3|1 Bd~d2 efge|dBGB cA:|2 Bdfd efge|dBGB A2||

